X: 15052
T: Gerald Campbell's
R: polka
M: 2/4
K: Adorian
|:eA AG/A/|BG Bd|eA Ad|G2 B/c/d|
eA AG/A/|BG Bd|ef/e/ dB|A2 A2:|
|:ea ab|ag ed|ef/e/ dB|AG/A/ Bd|
ea ab|ag ed|ef/e/ dB|A2 A2:|

